public/icons/lightbulb.svg

<svg width="76" height="76" viewBox="0 0 76 76" fill="none" xmlns="http://www.w3.org/2000/svg">
<path d="M45.6704 47.7385C51.7786 44.764 54.9044 37.7136 53.763 31.1452C53.2578 28.2326 52.0474 25.3101 49.9947 23.1455C48.272 21.3292 45.9836 20.0865 43.5361 19.5763C38.1739 18.4574 32.5766 20.6487 29.2185 24.935C25.5755 29.5858 24.1723 36.7164 27.1898 42.035C28.5972 44.5113 30.8307 46.4289 33.3788 47.6604C36.4174 49.1283 40.0084 49.8137 43.3109 48.9137C44.1661 48.6724 44.9937 48.3422 45.7802 47.9285C46.2939 47.6639 45.8414 46.8983 45.3277 47.1545C43.7585 47.9391 42.04 48.4296 40.2794 48.4535C38.6235 48.4753 36.9572 48.1495 35.3928 47.6168C32.8595 46.7547 30.526 45.158 28.9188 43.0061C25.51 38.4419 26.0526 31.8025 28.9758 27.1292C31.6456 22.8598 36.5701 20.1118 41.6424 20.4186C43.9175 20.5594 46.1461 21.3405 47.9758 22.7134C50.0869 24.3017 51.4366 26.5915 52.2578 29.07C53.2282 31.9967 53.4295 35.1415 52.6005 38.128C51.7561 41.1645 49.9074 43.9526 47.4782 45.9532C46.841 46.475 46.1593 46.9401 45.441 47.343C45.1778 47.4901 45.4072 47.8666 45.6704 47.7385Z" fill="#1574E5"/>
<path d="M29.1629 44.2186C29.231 45.4456 29.1244 46.676 28.8462 47.873C28.5612 49.0636 28.0144 50.1699 27.7203 51.357C27.4944 52.2718 27.412 53.2887 27.7203 54.1936C28.0313 55.1155 28.7055 55.7749 29.5295 56.2569C30.433 56.7833 31.4407 57.1816 32.421 57.5426C33.4766 57.931 34.6264 58.2251 35.758 58.159C37.9015 58.0337 39.1189 56.1464 39.8852 54.3499C40.7838 52.2387 41.4889 49.8461 43.7049 48.7582C44.03 48.5985 43.7971 48.0229 43.4551 48.165C41.8232 48.8406 40.9154 50.3873 40.2455 51.9425C39.4982 53.6778 38.8191 55.9043 37.1112 56.9486C35.259 58.0809 32.6166 56.7375 30.8482 56.0183C29.9552 55.6566 28.956 55.2302 28.4753 54.3358C27.937 53.3407 28.1045 52.1585 28.4296 51.1283C28.7941 49.963 29.3289 48.8645 29.5865 47.6654C29.827 46.5072 29.8549 45.315 29.6688 44.1468C29.6259 43.8611 29.1516 43.9287 29.1657 44.2172L29.1629 44.2186Z" fill="#1574E5"/>
<path d="M28.7752 56.062C28.9744 56.3822 28.7048 56.7973 28.5951 57.1077C28.4494 57.5095 28.3987 57.9317 28.5416 58.3434C28.8287 59.1695 29.6126 59.7093 30.3944 60.0126C31.2684 60.351 32.2726 60.4073 33.1339 60.0027C33.5129 59.8254 33.8407 59.555 34.0868 59.2168C34.3329 58.8785 34.4893 58.4833 34.5414 58.0682C34.5899 57.6798 33.9334 57.5918 33.8559 57.9753C33.7258 58.6227 33.2325 59.1322 32.6202 59.3637C31.8645 59.6502 30.9848 59.489 30.2861 59.121C29.7477 58.8395 29.1109 58.2864 29.2305 57.6059C29.3487 56.9402 29.8695 56.2632 29.3093 55.6517C29.0496 55.3702 28.5739 55.7355 28.7773 56.062H28.7752Z" fill="#1574E5"/>
<path d="M30.8652 53.9818C32.0022 54.6683 33.2043 55.2406 34.4541 55.6904C35.0711 55.903 35.7019 56.0733 36.3421 56.1999C36.986 56.3322 37.7115 56.4448 38.3695 56.3976C38.651 56.3779 38.7389 55.9592 38.4398 55.8874C37.8164 55.7375 37.1556 55.6629 36.5223 55.5461C35.9009 55.4307 35.2922 55.2724 34.6835 55.1035C33.4242 54.7599 32.2142 54.2559 31.0833 53.6039C30.8391 53.4632 30.621 53.8375 30.8624 53.9818H30.8652Z" fill="#1574E5"/>
<path d="M32.0889 51.6448C34.1297 53.0994 36.5018 54.1422 38.9268 54.7573C39.2864 54.8481 39.4391 54.2816 39.0795 54.2028C36.6306 53.6708 34.3759 52.6884 32.2655 51.3436C32.0727 51.2212 31.9095 51.5167 32.0889 51.6448Z" fill="#1574E5"/>
<path d="M33.426 49.9419C34.5519 50.5393 35.6905 51.1304 36.8931 51.5604C38.0401 51.9735 39.3751 52.3387 40.5995 52.1747C41.0119 52.1191 41.0435 51.4858 40.5995 51.5041C40.0077 51.5294 39.4103 51.5653 38.8191 51.509C38.2066 51.4385 37.6029 51.305 37.0177 51.1107C35.8291 50.7413 34.699 50.2121 33.5772 49.6794C33.4048 49.5971 33.2528 49.8476 33.426 49.9391V49.9419Z" fill="#1574E5"/>
<path d="M31.7588 45.9688C33.3977 45.2981 35.062 44.8379 36.8001 45.4691C37.4895 45.7218 38.112 46.1289 38.6199 46.6591C39.1695 47.2326 39.4721 47.899 39.7409 48.6337C39.8915 49.0461 40.636 49.0299 40.5734 48.5211C40.3566 46.7407 38.8141 45.2904 37.2062 44.6761C35.3927 43.9829 33.0184 44.2961 31.4928 45.5114C31.2817 45.6774 31.5104 46.0701 31.7588 45.9688Z" fill="#1574E5"/>
<path d="M33.6652 45.3122C35.0022 44.0821 35.7538 42.446 36.2316 40.7191C36.7317 38.8643 37.07 36.9697 37.2428 35.0564C37.4229 33.1564 37.3089 31.1375 36.3491 29.4373C36.0015 28.8223 35.3815 28.4303 34.7306 28.9293C34.0796 29.4282 34.1753 30.3824 34.4132 31.0636C34.9923 32.718 36.6116 33.732 38.1428 34.3872C39.9828 35.183 41.9814 35.5442 43.9836 35.4427C45.3614 35.3646 47.7674 35.1029 47.7055 33.2268C47.6843 32.5822 47.2382 32.0213 46.5746 31.97C45.7562 31.9073 45.063 32.5794 44.5648 33.143C41.5389 36.5666 39.2118 40.5207 37.5193 44.7542C37.3483 45.182 38.0619 45.3875 38.2181 44.9463C39.2943 41.9269 40.7893 39.0736 42.6592 36.4702C43.1448 35.7965 43.6528 35.1397 44.1834 34.4998C44.6662 33.9192 45.163 33.212 45.8139 32.8109C46.1503 32.604 46.6731 32.4351 46.9398 32.8468C47.1242 33.1339 47.0299 33.5575 46.8462 33.8172C46.4135 34.428 45.5183 34.5561 44.8315 34.6546C41.8056 35.0909 38.0858 34.3626 35.8586 32.129C35.3456 31.6146 34.8917 30.9376 34.8326 30.1924C34.8136 29.9503 34.8291 29.6105 35.0092 29.4254C35.3104 29.115 35.6095 29.381 35.7903 29.6583C36.0169 30.0102 36.1478 30.4563 36.2604 30.8546C36.6918 32.3753 36.5996 34.017 36.3927 35.5694C36.1824 37.2328 35.8731 38.8821 35.4666 40.5087C35.0543 42.1153 34.4245 43.6979 33.2852 44.935C33.0529 45.1876 33.4097 45.5451 33.6623 45.3122H33.6652Z" fill="#1574E5"/>
<path d="M30.5098 17.784L29.443 16.3808C29.3924 16.3042 29.3183 16.2462 29.2319 16.2154C29.1783 16.2002 29.122 16.1981 29.0675 16.2092C29.013 16.2204 28.9619 16.2445 28.9187 16.2795C28.8789 16.3108 28.8461 16.3501 28.8224 16.395C28.7988 16.4398 28.7848 16.489 28.7814 16.5396C28.7781 16.5902 28.7853 16.6409 28.8028 16.6884C28.8203 16.736 28.8475 16.7793 28.8828 16.8157L30.0355 18.1527C30.0877 18.2045 30.157 18.2356 30.2305 18.24C30.3039 18.2444 30.3764 18.2219 30.4345 18.1767C30.5429 18.0929 30.6048 17.905 30.5133 17.784H30.5098Z" fill="#1574E5"/>
<path d="M37.1492 15.8889C36.9897 15.3767 36.8304 14.8641 36.6714 14.3514C36.6471 14.2681 36.5913 14.1976 36.5159 14.1548C36.4405 14.112 36.3514 14.1002 36.2674 14.1219C36.1084 14.1733 35.9761 14.3528 36.038 14.5259L36.582 16.0459C36.6334 16.1866 36.7847 16.3027 36.9437 16.2507C37.0183 16.229 37.0815 16.1791 37.1199 16.1115C37.1582 16.044 37.1688 15.9641 37.1492 15.8889Z" fill="#1574E5"/>
<path d="M43.7395 15.9902C44.0345 15.4801 44.1841 14.8989 44.1722 14.3098C44.1673 14.0881 43.9808 13.8756 43.75 13.8876C43.5319 13.8974 43.3109 14.0748 43.3278 14.3098C43.3395 14.4924 43.3337 14.6758 43.3102 14.8573L43.325 14.7475C43.3034 14.9073 43.2684 15.0651 43.2201 15.219C43.2082 15.2563 43.1962 15.2936 43.1828 15.3302C43.1765 15.3463 43.1709 15.3632 43.1645 15.3794C43.1582 15.3956 43.1286 15.4632 43.1554 15.404L43.1498 15.4167C43.1406 15.4364 43.1315 15.4568 43.1223 15.4758C43.104 15.5152 43.0836 15.5546 43.0639 15.5926C42.9675 15.7749 43.0111 16.0289 43.2047 16.131C43.2952 16.1817 43.4018 16.1954 43.5022 16.1691C43.6026 16.1429 43.6889 16.0788 43.743 15.9902H43.7395Z" fill="#1574E5"/>
<path d="M50.4767 18.2752L51.3303 16.9008C51.3821 16.8107 51.3963 16.7038 51.37 16.6032C51.3437 16.5026 51.2789 16.4164 51.1896 16.3632C51.099 16.3125 50.9924 16.2988 50.892 16.3251C50.7916 16.3513 50.7053 16.4154 50.6512 16.5039L49.792 17.8741C49.7396 17.9649 49.725 18.0727 49.7513 18.1741C49.7777 18.2756 49.8428 18.3627 49.9327 18.4166C50.0239 18.4676 50.1312 18.4814 50.2323 18.4551C50.3333 18.4289 50.4204 18.3647 50.4753 18.2759L50.4767 18.2752Z" fill="#1574E5"/>
<path d="M54.5996 22.1104L55.5707 21.6354C55.6119 21.6114 55.6479 21.5795 55.6767 21.5415C55.7055 21.5036 55.7266 21.4604 55.7387 21.4143C55.7508 21.3682 55.7537 21.3202 55.7472 21.273C55.7407 21.2258 55.725 21.1804 55.7009 21.1392C55.6511 21.0586 55.5722 21.0001 55.4806 20.9759C55.3889 20.9517 55.2915 20.9636 55.2083 21.0091L54.2618 21.5333C54.1858 21.5789 54.1306 21.6524 54.1081 21.7382C54.0857 21.8239 54.0976 21.9151 54.1415 21.9921C54.1879 22.067 54.2614 22.1213 54.3467 22.1435C54.4319 22.1658 54.5225 22.1544 54.5996 22.1118V22.1104Z" fill="#1574E5"/>
<path d="M57.0859 28.8265C57.3911 28.7157 57.7033 28.6249 58.0204 28.5549C58.1738 28.5218 58.3272 28.4937 58.482 28.4698L58.5524 28.4592C58.5046 28.4655 58.4968 28.4669 58.5285 28.4627L58.6537 28.4472C58.7377 28.4383 58.8215 28.4306 58.905 28.424C59.1294 28.4064 59.3469 28.2382 59.3356 27.9934C59.3265 27.7787 59.1449 27.5388 58.905 27.5627C58.2064 27.6272 57.5199 27.7863 56.8642 28.0356C56.6644 28.1123 56.5046 28.3171 56.5771 28.5401C56.6411 28.7379 56.8663 28.9047 57.0824 28.8265H57.0859Z" fill="#1574E5"/>
<path d="M57.0521 34.6504C57.4758 34.7896 57.9222 34.8462 58.3673 34.8172C58.4458 34.8157 58.5207 34.7839 58.5762 34.7284C58.6317 34.6729 58.6635 34.598 58.665 34.5195C58.6579 34.3745 58.5327 34.2021 58.3673 34.2225C58.1626 34.2475 57.9559 34.2532 57.7501 34.2394C57.6995 34.2359 57.6495 34.2317 57.5995 34.2254C57.5904 34.2254 57.513 34.219 57.5798 34.2254C57.5528 34.2229 57.526 34.2187 57.4996 34.2127C57.3955 34.1951 57.2934 34.1719 57.1914 34.1423C57.124 34.1237 57.052 34.1325 56.9912 34.167C56.9303 34.2014 56.8857 34.2586 56.867 34.326C56.8483 34.3934 56.8572 34.4654 56.8916 34.5262C56.9261 34.5871 56.9833 34.6317 57.0507 34.6504H57.0521Z" fill="#1574E5"/>
<path d="M56.1027 40.432L57.3131 40.7135C57.3987 40.7357 57.4896 40.7238 57.5666 40.6802C57.6435 40.6366 57.7005 40.5647 57.7255 40.4799C57.7628 40.3145 57.6755 40.1027 57.4911 40.0675L56.2681 39.8297C56.1084 39.7994 55.9247 39.8747 55.8853 40.0471C55.8646 40.1267 55.8758 40.2111 55.9164 40.2826C55.9569 40.3541 56.0238 40.4069 56.1027 40.4299V40.432Z" fill="#1574E5"/>
<path d="M54.0065 45.139C54.5533 45.3931 55.0958 45.657 55.656 45.8793C55.7053 45.8931 55.7569 45.8967 55.8077 45.8901C55.8585 45.8834 55.9074 45.8666 55.9515 45.8406C56.0215 45.7974 56.0763 45.7334 56.1085 45.6577C56.1447 45.5724 56.1488 45.4769 56.12 45.3889C56.0911 45.3009 56.0312 45.2263 55.9515 45.1792C55.4442 44.9202 54.9178 44.7013 54.3963 44.4755C54.3053 44.4263 54.1994 44.4123 54.0987 44.436C54.0018 44.4638 53.9193 44.5275 53.8679 44.6141C53.7778 44.7844 53.8109 45.0518 54.0086 45.1426L54.0065 45.139Z" fill="#1574E5"/>
<path d="M50.7637 49.0749C51.0888 49.4887 51.4142 49.9027 51.7398 50.3169C51.7674 50.3448 51.8002 50.3669 51.8365 50.3819C51.8728 50.3969 51.9116 50.4045 51.9509 50.4042C52.0096 50.4042 52.0671 50.3867 52.116 50.3541C52.1648 50.3215 52.203 50.2751 52.2256 50.2209C52.2481 50.1666 52.2541 50.1069 52.2428 50.0492C52.2315 49.9916 52.2034 49.9385 52.162 49.8968L51.1275 48.7118C51.0793 48.664 51.0142 48.6373 50.9463 48.6373C50.8785 48.6373 50.8134 48.664 50.7651 48.7118C50.7187 48.7608 50.6927 48.8258 50.6927 48.8933C50.6927 48.9609 50.7187 49.0259 50.7651 49.0749H50.7637Z" fill="#1574E5"/>
<path d="M47.1812 52.3767L47.3691 53.4111C47.3956 53.5057 47.4576 53.5864 47.5422 53.6363C47.6066 53.6739 47.6807 53.6915 47.7551 53.6869C47.8294 53.6823 47.9008 53.6557 47.96 53.6104C48.0192 53.5651 48.0636 53.5033 48.0876 53.4327C48.1116 53.3621 48.114 53.286 48.0946 53.2141C48.0205 52.8711 47.9469 52.5284 47.8737 52.186C47.8482 52.0937 47.7871 52.0152 47.7039 51.9679C47.6206 51.9205 47.522 51.9081 47.4296 51.9333C47.341 51.9595 47.2655 52.0184 47.2185 52.098C47.1741 52.1833 47.1614 52.2815 47.1826 52.3753L47.1812 52.3767Z" fill="#1574E5"/>
<path d="M24.3369 44.0005C23.6332 44.3524 22.9295 44.6929 22.2398 45.0715C22.1568 45.1211 22.0964 45.2013 22.0718 45.2948C22.0472 45.3884 22.0603 45.4878 22.1082 45.5719C22.1588 45.654 22.2391 45.7135 22.3324 45.7381C22.4257 45.7626 22.5249 45.7502 22.6093 45.7035C23.313 45.3516 23.9942 44.9674 24.6824 44.5909C24.76 44.5444 24.8163 44.4694 24.8392 44.3819C24.8621 44.2944 24.8497 44.2015 24.8048 44.1229C24.7573 44.0466 24.6823 43.9913 24.5952 43.9686C24.5082 43.9458 24.4157 43.9572 24.3369 44.0005Z" fill="#1574E5"/>
<path d="M21.8901 38.6608C21.7615 38.7011 21.6313 38.7358 21.4995 38.7649C21.4291 38.7811 21.3588 38.7959 21.2884 38.8078L21.1955 38.8226L21.1336 38.8318H21.1547C20.8824 38.8599 20.6079 38.8845 20.3342 38.8888C20.1301 38.8888 19.9345 39.0661 19.9443 39.2786C19.9458 39.3816 19.9873 39.4799 20.0601 39.5527C20.1329 39.6255 20.2312 39.667 20.3342 39.6685C20.9302 39.6532 21.5182 39.5272 22.0681 39.2969C22.2264 39.2322 22.3559 39.0759 22.2968 38.893C22.2725 38.8097 22.2167 38.7392 22.1413 38.6964C22.0659 38.6536 21.9768 38.6418 21.8929 38.6636L21.8901 38.6608Z" fill="#1574E5"/>
<path d="M22.4608 30.6815L21.6811 30.3888C21.4221 30.2917 21.1645 30.1875 20.8992 30.1073C20.8091 30.0836 20.7134 30.0961 20.6323 30.1422C20.5513 30.1882 20.4916 30.2641 20.4658 30.3536C20.4193 30.557 20.5284 30.7132 20.7121 30.7871C20.9689 30.8891 21.2349 30.9693 21.4981 31.0559L22.2863 31.3148C22.3702 31.3376 22.4598 31.3262 22.5354 31.2832C22.611 31.2403 22.6667 31.1692 22.6902 31.0854C22.711 31.0016 22.6988 30.913 22.6561 30.838C22.6134 30.7629 22.5435 30.7071 22.4608 30.6822V30.6815Z" fill="#1574E5"/>
<path d="M24.7993 23.9203C24.1233 23.605 23.4496 23.2846 22.7782 22.959C22.7387 22.9359 22.6948 22.9215 22.6492 22.9167C22.6037 22.9119 22.5577 22.9169 22.5142 22.9313C22.4708 22.9458 22.4309 22.9693 22.3973 23.0004C22.3637 23.0315 22.3371 23.0694 22.3193 23.1116C22.3015 23.1538 22.293 23.1993 22.2942 23.245C22.2954 23.2908 22.3064 23.3358 22.3264 23.377C22.3464 23.4181 22.3749 23.4546 22.4101 23.4838C22.4453 23.5131 22.4864 23.5345 22.5305 23.5466C23.2342 23.7934 23.9361 24.047 24.636 24.3073C24.8591 24.3904 25.0174 24.0216 24.7993 23.9203Z" fill="#1574E5"/>
</svg>

<svg xmlns="http://www.w3.org/2000/svg" width="76" height="76" fill="none"><path fill="#1574E5" d="M45.67 47.739c6.109-2.975 9.234-10.025 8.093-16.594-.505-2.912-1.716-5.835-3.768-8-1.723-1.816-4.011-3.058-6.459-3.569-5.362-1.119-10.96 1.073-14.318 5.359-3.642 4.65-5.046 11.781-2.028 17.1 1.407 2.476 3.64 4.394 6.189 5.625 3.038 1.468 6.63 2.154 9.932 1.254a12.7 12.7 0 0 0 2.47-.986c.513-.264.06-1.03-.453-.773-1.57.784-3.288 1.275-5.049 1.298-1.656.022-3.322-.303-4.886-.836-2.534-.862-4.867-2.459-6.474-4.61-3.409-4.565-2.866-11.204.057-15.878 2.67-4.27 7.594-7.017 12.666-6.71 2.275.14 4.504.921 6.334 2.294 2.11 1.589 3.46 3.878 4.282 6.357.97 2.927 1.171 6.072.342 9.058-.844 3.036-2.693 5.825-5.122 7.825-.637.522-1.319.987-2.037 1.39-.263.147-.034.524.23.395"/><path fill="#1574E5" d="M29.163 44.219a13 13 0 0 1-.317 3.654c-.285 1.19-.832 2.297-1.126 3.484-.226.915-.308 1.932 0 2.837.311.921.986 1.58 1.81 2.063.903.526 1.91.925 2.891 1.286 1.056.388 2.205.682 3.337.616 2.143-.125 3.36-2.013 4.127-3.81.899-2.11 1.604-4.503 3.82-5.59.325-.16.092-.736-.25-.594-1.632.676-2.54 2.222-3.21 3.778-.747 1.735-1.426 3.961-3.134 5.006-1.852 1.132-4.494-.212-6.263-.93-.893-.362-1.892-.789-2.373-1.683-.538-.995-.37-2.178-.045-3.208.364-1.165.899-2.264 1.157-3.463.24-1.158.268-2.35.082-3.518-.043-.286-.517-.218-.503.07z"/><path fill="#1574E5" d="M28.775 56.062c.2.32-.07.735-.18 1.046-.146.402-.196.824-.053 1.235.287.826 1.07 1.366 1.852 1.67.874.338 1.879.394 2.74-.01a2.48 2.48 0 0 0 1.407-1.935c.049-.388-.608-.476-.685-.093-.13.648-.623 1.157-1.236 1.389-.755.286-1.635.125-2.334-.243-.538-.282-1.175-.835-1.056-1.515.119-.666.64-1.343.08-1.954-.26-.282-.736.084-.533.41zM30.865 53.982a20 20 0 0 0 3.59 1.708q.925.32 1.887.51c.644.132 1.37.245 2.028.198.281-.02.369-.439.07-.51-.624-.15-1.284-.225-1.918-.342a22 22 0 0 1-1.838-.443 15.2 15.2 0 0 1-3.6-1.5c-.245-.14-.463.234-.222.379zM32.089 51.645c2.04 1.454 4.413 2.497 6.838 3.112.36.091.512-.475.153-.554-2.45-.532-4.704-1.515-6.814-2.86-.193-.122-.356.174-.177.302M33.426 49.942c1.126.597 2.264 1.188 3.467 1.618 1.147.413 2.482.779 3.706.615.413-.056.445-.69 0-.67-.591.024-1.189.06-1.78.004a9 9 0 0 1-1.801-.398c-1.189-.37-2.319-.899-3.44-1.432-.173-.082-.325.169-.152.26zM31.759 45.969c1.639-.67 3.303-1.131 5.041-.5.69.253 1.312.66 1.82 1.19.55.574.852 1.24 1.12 1.975.151.412.896.396.833-.113-.216-1.78-1.759-3.23-3.367-3.845-1.813-.693-4.188-.38-5.713.835-.211.166.017.56.266.458"/><path fill="#1574E5" d="M33.665 45.312c1.337-1.23 2.089-2.866 2.567-4.593.5-1.855.838-3.75 1.01-5.663.18-1.9.067-3.918-.893-5.619-.347-.615-.967-1.007-1.618-.508-.651.5-.556 1.453-.318 2.135.58 1.654 2.199 2.668 3.73 3.323a13.05 13.05 0 0 0 5.84 1.056c1.378-.078 3.784-.34 3.723-2.216-.022-.645-.468-1.206-1.131-1.257-.819-.063-1.512.61-2.01 1.173-3.026 3.424-5.353 7.378-7.046 11.611-.17.428.543.634.7.192A34.2 34.2 0 0 1 44.182 34.5c.483-.58.98-1.288 1.63-1.69.337-.206.86-.375 1.127.037.184.287.09.71-.094.97-.432.611-1.328.74-2.014.838-3.026.436-6.746-.292-8.973-2.526-.513-.514-.967-1.191-1.026-1.937-.02-.242-.004-.582.176-.767.301-.31.6-.044.781.233.227.352.358.798.47 1.197.432 1.52.34 3.162.133 4.714a42 42 0 0 1-.926 4.94c-.413 1.606-1.042 3.189-2.182 4.426-.232.253.125.61.377.377zM30.51 17.784l-1.067-1.403a.42.42 0 0 0-.211-.166.35.35 0 0 0-.313.064.362.362 0 0 0-.036.537l1.152 1.337a.303.303 0 0 0 .4.024c.108-.084.17-.272.078-.393zM37.15 15.889l-.479-1.538a.333.333 0 0 0-.404-.23c-.159.052-.29.232-.229.405l.544 1.52c.051.14.203.257.362.205a.3.3 0 0 0 .205-.362M43.74 15.99c.294-.51.444-1.091.432-1.68-.005-.222-.191-.434-.422-.422-.218.01-.44.187-.422.422q.017.274-.018.547l.015-.11a3 3 0 0 1-.142.583l-.019.05c-.006.016-.035.083-.009.024l-.005.013-.028.059q-.027.06-.058.117c-.096.182-.053.436.14.538a.4.4 0 0 0 .539-.14zM50.477 18.275l.853-1.374a.396.396 0 0 0-.14-.538.4.4 0 0 0-.539.14l-.859 1.371a.4.4 0 0 0 .14.543.405.405 0 0 0 .543-.141zM54.6 22.11l.97-.475a.36.36 0 0 0-.362-.626l-.946.524a.34.34 0 0 0-.12.46.343.343 0 0 0 .458.119zM57.086 28.827a7.4 7.4 0 0 1 1.396-.357l.07-.01-.023.003.125-.016.251-.023c.224-.018.442-.186.43-.43-.008-.215-.19-.455-.43-.431a7.8 7.8 0 0 0-2.04.473c-.2.076-.36.281-.288.504.064.198.29.365.505.287zM57.052 34.65c.424.14.87.196 1.315.167a.304.304 0 0 0 .298-.297c-.007-.146-.132-.318-.298-.298a3.3 3.3 0 0 1-.767.003c-.01 0-.087-.006-.02 0a2.74 2.74 0 0 1-.388-.083.264.264 0 0 0-.141.508zM56.103 40.432l1.21.282a.34.34 0 0 0 .412-.234c.038-.165-.05-.377-.234-.412l-1.223-.238c-.16-.03-.343.045-.383.217a.316.316 0 0 0 .218.383zM54.007 45.139c.546.254 1.089.518 1.649.74a.38.38 0 0 0 .296-.038.4.4 0 0 0 .157-.183.38.38 0 0 0-.157-.479c-.508-.259-1.034-.478-1.556-.704a.42.42 0 0 0-.297-.039.4.4 0 0 0-.231.178c-.09.17-.057.438.14.529zM50.764 49.075l.976 1.242a.3.3 0 0 0 .21.087.298.298 0 0 0 .212-.507l-1.035-1.185a.257.257 0 0 0-.362 0 .264.264 0 0 0 0 .363zM47.181 52.377l.188 1.034a.38.38 0 0 0 .386.276.375.375 0 0 0 .34-.473q-.112-.515-.221-1.028a.36.36 0 0 0-.444-.253.37.37 0 0 0-.212.165.4.4 0 0 0-.035.277zM24.337 44c-.704.352-1.407.693-2.097 1.072a.37.37 0 0 0-.132.5.376.376 0 0 0 .501.131c.704-.351 1.385-.736 2.073-1.112a.346.346 0 0 0 .123-.468.35.35 0 0 0-.468-.122M21.89 38.66a5 5 0 0 1-.602.148l-.093.015-.061.009h.02a10 10 0 0 1-.82.057c-.204 0-.4.177-.39.39a.396.396 0 0 0 .39.39 4.8 4.8 0 0 0 1.734-.372c.158-.065.288-.221.229-.404a.333.333 0 0 0-.404-.23zM22.46 30.682l-.779-.293c-.259-.097-.517-.201-.782-.282a.356.356 0 0 0-.433.247c-.047.203.062.36.246.433.257.102.523.182.786.269l.788.259a.33.33 0 0 0 .404-.23.336.336 0 0 0-.23-.403M24.8 23.92q-1.015-.472-2.022-.961a.322.322 0 1 0-.247.588q1.055.37 2.105.76c.223.083.381-.285.163-.387"/></svg>
